X: 1
T: My Friend Buddy
C: Dan Hughie MacEachern
S: from Carl MacKenzie "Cape Breton Fiddle Medleys"
Z: arr. T. Traub 2-11-2004
R: Jig
M: 6/8
K: F
L: 1/8
|:\
"F"FGF FGA | cdc cAG | FGF FGA | "Bb"fgf fga |\
"F"FGF FGA | "Dm"cdc cAF | "Gm"GAG GAc |\
[1 "Bb"d3 "C"f3 :|[2 "Bb"d3 d2 b ||
"F"agf fcA | "F"FGF F2 b | "F"agf fef | "C"gag gfg |\
"F"agf fcA | "F"FGF "Dm"FGA | "Gm"GAG GAc | "Bb"d3 "C"d2 b |
"F"agf fcA | "F"FGF F2 b | "F"agf "Dm"fef | "C"gag gfg |\
"F"afa "C"geg | "F"fed cAF | "Gm"GAG GAc | "Bb"d3 "C"f3 |]
